lite/images/i/i-info-success.svg

<?xml version="1.0" encoding="utf-8"?>
<!DOCTYPE svg PUBLIC "-//W3C//DTD SVG 1.1//EN" "http://www.w3.org/Graphics/SVG/1.1/DTD/svg11.dtd">
<svg version="1.1" baseProfile="full"
 xmlns="http://www.w3.org/2000/svg"
 xmlns:xlink="http://www.w3.org/1999/xlink"
 xmlns:ev="http://www.w3.org/2001/xml-events" 
  height="24px" 
  width="25px" 
>
<path opacity="0.2" fill="rgb( 0, 0, 0 )"
 d="M12.654,23.883 C6.53999999999996,23.883 0.93499999999995,18.278 0.93499999999995,12.164 C0.93499999999995,6.04999999999995 6.53999999999996,0.44599999999991 12.654,0.44599999999991 C18.768,0.44599999999991 24.372,6.04999999999995 24.372,12.164 C24.372,18.278 18.768,23.883 12.654,23.883 ZM8.56500000000005,6.38000000000011 C7.54600000000005,6.38000000000011 6.72000000000003,7.48099999999999 6.72000000000003,8.83999999999992 C6.72000000000003,10.1980000000001 7.54600000000005,11.299 8.56500000000005,11.299 C9.58399999999995,11.299 10.41,10.1980000000001 10.41,8.83999999999992 C10.41,7.48099999999999 9.58399999999995,6.38000000000011 8.56500000000005,6.38000000000011 ZM17.175,6.38000000000011 C16.1559999999999,6.38000000000011 15.33,7.48099999999999 15.33,8.83999999999992 C15.33,10.1980000000001 16.1559999999999,11.299 17.175,11.299 C18.194,11.299 19.02,10.1980000000001 19.02,8.83999999999992 C19.02,7.48099999999999 18.194,6.38000000000011 17.175,6.38000000000011 ZM18.855,14.4780000000001 C17.801,14.4780000000001 17.255,17.761 12.407,17.78 C8.57100000000003,17.7950000000001 7.822,14.4780000000001 6.76700000000005,14.4780000000001 C6.24000000000001,14.4780000000001 6.24000000000001,14.6479999999999 6.24000000000001,15.3320000000001 C6.24000000000001,16.0150000000001 9.00699999999995,19.0889999999999 12.407,19.01 C17.226,18.8979999999999 19.3819999999999,16.0150000000001 19.3819999999999,15.3320000000001 C19.3819999999999,14.6479999999999 19.3819999999999,14.4780000000001 18.855,14.4780000000001 Z "/>
</svg>

<?xml version="1.0" encoding="utf-8"?><svg baseProfile="full" xmlns="http://www.w3.org/2000/svg" height="24" width="25"><path opacity=".2" fill="rgb( 0, 0, 0 )" d="M12.654 23.883c-6.114 0-11.72-5.605-11.72-11.72C.934 6.05 6.54.447 12.654.447c6.115 0 11.72 5.604 11.72 11.718s-5.605 11.72-11.72 11.72zM8.564 6.38c-1.018 0-1.844 1.1-1.844 2.46 0 1.358.826 2.46 1.845 2.46 1.02 0 1.845-1.102 1.845-2.46 0-1.36-.826-2.46-1.845-2.46zm8.61 0c-1.018 0-1.844 1.1-1.844 2.46 0 1.358.826 2.46 1.845 2.46 1.02 0 1.845-1.102 1.845-2.46 0-1.36-.826-2.46-1.845-2.46zm1.68 8.098c-1.053 0-1.6 3.283-6.447 3.302-3.836.015-4.585-3.302-5.64-3.302-.527 0-.527.17-.527.854 0 .683 2.767 3.757 6.167 3.678 4.82-.112 6.975-2.995 6.975-3.678 0-.684 0-.854-.527-.854z"/></svg>
